X: 2221
T: Sandy is my Darling.   a Reel.
%R: reel, air
B: Niel Gow & Sons "Complete Repository" v.2 p.22 #1
Z: 2021 John Chambers <jc:trillian.mit.edu>
M: C
L: 1/8
K: Am
% - - - - - - - - - -
V: 1 staves=2
c |\
A/A/A {A}a2 Tg>ede | cG-G>E G>AcG | A/A/A {A}a2 g>ede | c[AC]B[^GC] [A3E3C3] :| c | (ABc).d egde | c(GGE) G>AcG |
(ABc).d egde | c>A B^G A3B || (ABc).d egde | cG-G>E GAce/^g/ | aegd {f}e>d ca | gedB [A3E3C3] |]
% - - - - - - - - - -
% Voice 2 preserves the staff layout in the book.
V: 2 clef=bass middle=d
z | a2a2 b2c'2 | g2g2 g2g2 | a2a2 b2c'2 | e'2e2 a2A :| z | A3B c2B2 | G2G2 g2G2 |
A3B c2d2 | e2E2 A2Az || A3B c2B2 | G2G2 g2gz | a2b2 c'2c'2 | e'2e2 a2A |]


